X:1
T:Cadaneasca
R:cadaneasca
H:Last part played as intro
D:Trio Polifonic
O:Romania
Z:id:hn-cadaneasca-1
M:2+2+2+3/16
L:1/16
Q:1/8=220
K:Aphr ^c
|: ABcd e2 ffd | cedc BA eeA | ABcd e2 ffd | cedc BG A3 :|
|: cddd dd fed | ^Bccc cc edc | ABBB BB dcB | ABcd e2 eeA |
cddd dd fed | ^Bccc cc edc | ABBB BB dcB | cedc BG A3 :|
|: ABcd e2 ffc | defa fa ffd | ABcd e2 ffd | cedc BG A3 :|
|: cddd dd fed | ^Bccc cc edc | ABBB BB dcB | ABcd e2 eeA |
cddd dd fed | ^Bccc cc edc | ABBB BB dcB | cedc BG A3 :|
|: cedc BA eeA | cedc BG AAA | cedc BA eeA | cedc BG A3 :|

